X:2
T:Robin Hood and the Curtal Friar
M:C
L:1/8
K:A
%%score 1 2
V:1 clef-treble
V:2 clef-bass octave=-1
[V:1]E2|[CA]2A2 A3A & x4E2x2|(Ad)(cB) A2[EA]2 & F6x2|[^DA]2[EG]2 [EF]2[DB]2|
w:In sum-mer time, when leaves* grow* green, And flow'rs are fresh and
[V:2]z2|[A,A]4 [CA]4|[DA]6 [CA]2|[B,B]6 [B,B]2|
[V:1]E6 E2|[EA]2 (AG) F2 FF|[B,(E]F)(ED) C2[A,E]2|[A,D]2[DF]2 [CE]2[B,G]2|[CA]6||
w:gay, Bold Ro-bin* Hood and his mer-*ry* men Were well dis-pos'd to play.
[V:2][EG]2B,2 E,2z2|[CA]4 [DA]4|G,4 A,2C2|F2B,2 E2E2|A,6||

